local/share/icons/dracula-icons-main/scalable/mimetypes/x-media-podcast.svg

<?xml version="1.0" encoding="UTF-8"?>
<svg xmlns="http://www.w3.org/2000/svg" xmlns:xlink="http://www.w3.org/1999/xlink" width="64" height="64" viewBox="0 0 64 64">
<defs>
<filter id="filter-remove-color" x="0%" y="0%" width="100%" height="100%">
<feColorMatrix color-interpolation-filters="sRGB" values="0 0 0 0 1 0 0 0 0 1 0 0 0 0 1 0 0 0 1 0" />
</filter>
<mask id="mask-0">
<g filter="url(#filter-remove-color)">
<rect x="-6.4" y="-6.4" width="76.8" height="76.8" fill="rgb(0%, 0%, 0%)" fill-opacity="0.15"/>
</g>
</mask>
<linearGradient id="linear-pattern-0" gradientUnits="userSpaceOnUse" x1="49.570999" y1="52.714001" x2="51.714001" y2="54.856998" gradientTransform="matrix(2.3333, 0, 0, 2.3333, -68.667, -72.000999)">
<stop offset="0" stop-color="rgb(0%, 0%, 0%)" stop-opacity="1"/>
<stop offset="1" stop-color="rgb(0%, 0%, 0%)" stop-opacity="0"/>
</linearGradient>
<clipPath id="clip-0">
<rect x="0" y="0" width="64" height="64"/>
</clipPath>
<g id="source-986" clip-path="url(#clip-0)">
<path fill-rule="evenodd" fill="url(#linear-pattern-0)" d="M 56 46 L 42 60 L 51 60 C 53.769531 60 56 57.769531 56 55 Z M 56 46 "/>
</g>
<mask id="mask-1">
<g filter="url(#filter-remove-color)">
<rect x="-6.4" y="-6.4" width="76.8" height="76.8" fill="rgb(0%, 0%, 0%)" fill-opacity="0.75"/>
</g>
</mask>
<clipPath id="clip-1">
<rect x="0" y="0" width="64" height="64"/>
</clipPath>
<g id="source-990" clip-path="url(#clip-1)">
<path fill-rule="nonzero" fill="rgb(100%, 100%, 100%)" fill-opacity="1" d="M 32 23 C 29.230469 23 27 25.230469 27 28 L 27 33 C 27 35.769531 29.230469 38 32 38 C 34.769531 38 37 35.769531 37 33 L 37 28 C 37 25.230469 34.769531 23 32 23 M 28 27 L 31 27 L 31 28 L 28 28 Z M 33 27 L 36 27 L 36 28 L 33 28 Z M 28 30 L 31 30 L 31 31 L 28 31 Z M 33 30 L 36 30 L 36 31 L 33 31 Z M 28 33 L 31 33 L 31 34 L 28 34 Z M 33 33 L 36 33 L 36 34 L 33 34 Z M 25.078125 34 C 25.515625 37.070312 27.929688 39.484375 31 39.921875 L 31 41 L 31.5 41 L 31.5 43 L 30 43 L 30 44 L 34 44 L 34 43 L 32.5 43 L 32.5 41 L 33 41 L 33 39.921875 C 36.070312 39.484375 38.484375 37.070312 38.921875 34 L 37.910156 34 C 37.4375 36.84375 34.980469 39 32 39 C 29.019531 39 26.5625 36.84375 26.089844 34 Z M 25.078125 34 "/>
</g>
</defs>
<path fill-rule="nonzero" fill="rgb(55.686275%, 29.411765%, 66.27451%)" fill-opacity="1" d="M 13 4 L 51 4 C 53.761719 4 56 6.238281 56 9 L 56 55 C 56 57.761719 53.761719 60 51 60 L 13 60 C 10.238281 60 8 57.761719 8 55 L 8 9 C 8 6.238281 10.238281 4 13 4 Z M 13 4 "/>
<g mask="url(#mask-0)">
<use xlink:href="#source-986"/>
</g>
<g mask="url(#mask-1)">
<use xlink:href="#source-990"/>
</g>
</svg>

<svg width="64" height="64" version="1.1" viewBox="0 0 64 64" xmlns="http://www.w3.org/2000/svg">
 <defs>
  <linearGradient id="a" x1="49.571" x2="51.714" y1="52.714" y2="54.857" gradientTransform="matrix(2.3333,0,0,2.3333,-68.667,-72.001)" gradientUnits="userSpaceOnUse">
   <stop offset="0"/>
   <stop stop-opacity="0" offset="1"/>
  </linearGradient>
 </defs>
 <g transform="scale(1)">
  <rect x="8" y="4" width="48" height="56" ry="5" fill="#8e4ba9" style="paint-order:stroke fill markers"/>
  <path d="m56 46-14 14h9c2.77 0 5-2.23 5-5z" fill="url(#a)" fill-rule="evenodd" opacity=".15" stroke-width="8.8191" style="paint-order:stroke fill markers"/>
 </g>
 <path d="m32 23c-2.77 0-5 2.23-5 5v5c0 2.77 2.23 5 5 5s5-2.23 5-5v-5c0-2.77-2.23-5-5-5m-4 4h3v1h-3zm5 0h3v1h-3zm-5 3h3v1h-3zm5 0h3v1h-3zm-5 3h3v1h-3zm5 0h3v1h-3zm-7.922 1c0.437 3.072 2.851 5.485 5.922 5.922v1.078h0.5v2h-1.5v1h4v-1h-1.5v-2h0.5v-1.078c3.071-0.437 5.485-2.85 5.922-5.922h-1.012c-0.474 2.844-2.928 5-5.91 5s-5.436-2.156-5.91-5z" color="#4d4d4d" color-rendering="auto" fill="#fff" image-rendering="auto" opacity=".75" shape-rendering="auto" solid-color="#000000" style="isolation:auto;mix-blend-mode:normal"/>
</svg>
